public/img/clients/kanetix.svg

<svg xmlns="http://www.w3.org/2000/svg" focusable="false" role="img" viewBox="0 0 200 100" fill="currentColor">
  <path d="M178.567 42.464v.806h.887v2.25h.986v-2.25h.885v-.806h-2.758zm5.288 0l-.53 1.91-.532-1.91H181.6v3.057h.89V44.49l-.023-.475-.04-.45h.008l.548 1.958h.685l.544-1.958h.01l-.05.553-.014.474v.93h.886v-3.056l-1.189-.002zm-46.899 14.033h5.378l-1.286 5.397h-5.377l1.285-5.397zm24.258-2.352c-1.45 5.07-5.26 8.02-10.488 8.02-5.835 0-8.513-3.89-7.126-10.166 1.393-6.302 5.81-10.166 11.492-10.166 5.28 0 7.764 2.816 7.016 7.805h-5.582c.255-1.958-.556-2.977-2.424-2.977-2.3 0-3.828 1.77-4.616 5.336-.776 3.513.058 5.336 2.407 5.336 1.794 0 3.155-1.126 3.79-3.19h5.53l.001.002zm8.476-11.681h5.955l2.147 19.43h-5.83l-.118-2.568h-5.83l-1.28 2.568h-5.777l10.733-19.43zm1.986 12.782l-.346-6.73-3.344 6.73h3.69zM45.373 42.464L36.176 58.43l-3.65-8.804 8.55-7.162h-7.24l-7.037 6.432 1.44-6.432h-6.188l-5.008 19.43h6.842l1.387-6.19 1.897-1.594 3.01 7.784h10.134l1.333-2.567h6.187l.156 2.567h6.186l-2.482-19.43h-6.32zm-1.678 12.782l3.482-6.727.436 6.726h-3.918v.001zm27.201-12.782l-2.485 11.81-3.946-11.81h-5.918l-4.356 19.43h5.92l2.47-11.754 3.96 11.754h5.946l4.356-19.43h-5.947zm12.324 4.84l-.638 2.846h7.863l-.997 4.458h-7.866l-.573 2.556h9.674l-1.06 4.73H73.707l4.355-19.43h32.65l-1.088 4.855h-5.485l-3.267 14.574H94.63L97.9 47.32l-14.68-.016zm28.484-4.84l-4.397 19.43h6.38l4.648-19.43h-6.631zm27.113 0h-6.864l-3.94 4.918-1.49-4.918h-7.03l3.992 9.323-8.94 10.107h7.19l4.125-5.27 1.764 5.27h7.054l-4.248-10.107"/>
</svg>

<svg width="200" height="100" viewBox="0 0 200 100" fill="none" xmlns="http://www.w3.org/2000/svg">
<path d="M178.567 42.464V43.27H179.454V45.52H180.44V43.27H181.325V42.464H178.567ZM183.855 42.464L183.325 44.374L182.793 42.464H181.6V45.521H182.49V44.49L182.467 44.015L182.427 43.565H182.435L182.983 45.523H183.668L184.212 43.565H184.222L184.172 44.118L184.158 44.592V45.522H185.044V42.466L183.855 42.464ZM136.956 56.497H142.334L141.048 61.894H135.671L136.956 56.497ZM161.214 54.145C159.764 59.215 155.954 62.165 150.726 62.165C144.891 62.165 142.213 58.275 143.6 51.999C144.993 45.697 149.41 41.833 155.092 41.833C160.372 41.833 162.856 44.649 162.108 49.638H156.526C156.781 47.68 155.97 46.661 154.102 46.661C151.802 46.661 150.274 48.431 149.486 51.997C148.71 55.51 149.544 57.333 151.893 57.333C153.687 57.333 155.048 56.207 155.683 54.143H161.213L161.214 54.145ZM169.69 42.464H175.645L177.792 61.894H171.962L171.844 59.326H166.014L164.734 61.894H158.957L169.69 42.464ZM171.676 55.246L171.33 48.516L167.986 55.246H171.676ZM45.373 42.464L36.176 58.43L32.526 49.626L41.076 42.464H33.836L26.799 48.896L28.239 42.464H22.051L17.043 61.894H23.885L25.272 55.704L27.169 54.11L30.179 61.894H40.313L41.646 59.327H47.833L47.989 61.894H54.175L51.693 42.464H45.373ZM43.695 55.246L47.177 48.519L47.613 55.245H43.695V55.246ZM70.896 42.464L68.411 54.274L64.465 42.464H58.547L54.191 61.894H60.111L62.581 50.14L66.541 61.894H72.487L76.843 42.464H70.896ZM83.22 47.304L82.582 50.15H90.445L89.448 54.608H81.582L81.009 57.164H90.683L89.623 61.894H73.707L78.062 42.464H110.712L109.624 47.319H104.139L100.872 61.893H94.63L97.9 47.32L83.22 47.304ZM111.704 42.464L107.307 61.894H113.687L118.335 42.464H111.704ZM138.817 42.464H131.953L128.013 47.382L126.523 42.464H119.493L123.485 51.787L114.545 61.894H121.735L125.86 56.624L127.624 61.894H134.678L130.43 51.787" fill="black"/>
</svg>
